svgs/light/biohazard.svg

<svg xmlns="http://www.w3.org/2000/svg" viewBox="0 0 576 512"><!--! Font Awesome Pro 6.3.0 by @fontawesome - https://fontawesome.com License - https://fontawesome.com/license (Commercial License) Copyright 2023 Fonticons, Inc. --><path d="M288 248c-13.31 0-24 10.69-24 24c0 13.22 10.69 24 24 24s24-10.78 24-24C312 258.7 301.3 248 288 248zM288.2 95.99c17.62 0 34.75 2.75 50.87 7.623c6.5-8.498 11.12-18.37 13.12-29.37C331.9 67.75 310.3 63.94 288.1 63.94c-22.37 0-43.9 3.809-64.15 10.31c1.875 10.1 6.625 20.99 13.12 29.49C253.3 98.74 270.3 95.99 288.2 95.99zM407.4 401c5.5 9.123 12.88 17.12 22.5 22.74c32.75-30.49 55.37-71.36 63.12-117.3c-9.375-5.123-19.75-7.998-30.25-7.998c-.25 0-.5 .125-.875 .125C455.8 338.7 436 374.5 407.4 401zM574.8 276.6c-13.88-40.36-41.25-74.11-77.24-95.35c-12.25-7.123-25.62-12.75-40.12-16.62c3.5-13.87 5.25-27.37 5.25-40.86c0-42.11-15.12-83.1-42.37-115.5c-7.375-8.498-19.75-10.87-29.75-5.123c-9.748 5.623-14.12 17.37-10.62 27.87c3.748 11.25 5.498 21.49 5.498 31.12c0 54.61-43.62 99.22-97.24 99.22c-53.75 0-97.37-44.49-97.37-99.22c0-9.623 1.875-19.87 5.5-30.99c3.5-10.75-1-22.49-10.75-27.99c-9.748-5.623-22.25-3.5-29.62 5.123c-27.37 32.37-42.5 73.35-42.5 115.5c0 13.5 1.75 26.99 5.25 40.86C104.2 168.6 90.79 174.2 78.54 181.2c-35.1 21.12-63.37 54.98-77.24 95.35c-3.625 10.62 .5 22.12 10.25 28.12c9.75 5.75 22.25 3.75 29.75-4.873c7.625-8.748 15.37-15.5 23.5-20.24C87.17 266.4 113.2 262.9 138 269.7c25.25 6.748 46.37 23.12 59.5 46.11c26.87 47.49 10.87 108.3-35.75 135.8C153.7 456.4 144.2 459.9 132.8 462.3c-10.1 2.375-18.75 12.12-18.62 23.37s8.125 20.99 19.12 23.12C144.3 510.9 155.3 512 166.3 512c30.5 0 60.5-7.998 86.99-23.62c12.5-7.246 23.1-16.49 34.62-27.24c10.75 10.87 22.37 19.1 34.75 27.24c35.1 21.24 78.62 28.49 119.9 20.37c11.12-2.123 18.87-11.62 19.12-23.12c.125-11.25-7.873-20.99-18.75-23.37c-11.38-2.373-20.75-5.873-28.1-10.62c-46.62-27.49-62.62-88.35-35.62-135.8c12.1-22.99 34.12-39.36 59.49-46.11c24.87-6.748 50.87-3.25 73.12 9.871c8.25 4.748 15.88 11.37 23.62 20.24c7.5 8.623 20 10.5 29.75 4.748C574.3 298.7 578.3 287.2 574.8 276.6zM429.6 238.7c-33.75 8.998-61.75 30.87-78.99 61.36c-35.62 62.61-14.38 142.1 47.12 179.1c.25 0 .375 .125 .5 .125c-20.87-1.625-41.12-7.998-59.37-18.62c-14.12-8.373-26.1-19.75-38.37-33.87l-12.5-15.37l-12.5 15.49c-11.38 14.12-24.25 25.49-38.37 33.74c-18.25 10.75-38.5 16.99-59.37 18.74c.125-.125 .375-.25 .5-.25c61.49-36.12 82.74-116.5 47.25-178.9C208.3 269.7 180.2 247.8 146.4 238.8c-11-2.998-22.12-4.373-33.12-4.373c-22.37 0-44.37 5.873-64.12 17.37c11.87-17.49 27.37-32.12 45.62-42.86C108.7 200.8 123.9 195.3 141.7 192.2l18.5-3.125L154 171.2C148.3 154.6 145.4 139.1 145.4 123.7c0-20.99 4.625-41.86 13.37-60.86c.375 71.98 58.12 130.5 129.2 130.5c70.99 0 128.9-58.48 129.2-130.5c8.75 18.99 13.38 39.86 13.38 60.86c0 15.25-2.875 30.74-8.5 47.49l-6.125 17.74l18.5 3.25c17.75 3 32.1 8.498 46.87 16.62c18.25 10.75 33.75 25.37 45.62 42.86C497.3 234.6 462.8 229.8 429.6 238.7zM168.8 400.8c-28.5-26.37-48.25-62.11-54.5-102.3c-.375 0-.75-.25-1.125-.25c-10.37 0-20.75 3-29.1 7.998c7.625 45.99 30.37 86.85 62.1 117.3C155.8 417.9 163.3 409.9 168.8 400.8z"/></svg>

<svg xmlns="http://www.w3.org/2000/svg" viewBox="0 0 576 512"><!-- Font Awesome Pro 6.0.0-alpha2 by @fontawesome - https://fontawesome.com License - https://fontawesome.com/license (Commercial License) --><path d="M287.999 248C274.687 248 263.999 258.688 263.999 272C263.999 285.219 274.687 296 287.999 296S311.999 285.219 311.999 272C311.999 258.688 301.312 248 287.999 248ZM288.152 95.994C305.777 95.994 322.9 98.744 339.023 103.617C345.523 95.119 350.148 85.248 352.148 74.25C331.898 67.752 310.4 64.129 288.152 64.129C265.779 64.129 244.156 67.752 223.908 74.25C225.783 85.248 230.533 95.244 237.031 103.742C253.281 98.744 270.279 95.994 288.152 95.994ZM407.392 401.031C412.892 410.154 420.267 418.152 429.892 423.775C462.638 393.283 485.261 352.42 493.011 306.434C483.636 301.311 473.263 298.436 462.763 298.436C462.513 298.436 462.263 298.561 461.888 298.561C455.765 338.674 436.015 374.539 407.392 401.031ZM574.755 276.568C560.88 236.205 533.507 202.463 497.511 181.221C485.261 174.098 471.888 168.473 457.388 164.6C460.888 150.729 462.638 137.232 462.638 123.736C462.638 81.623 447.515 40.635 420.267 8.27C412.892 -0.229 400.519 -2.602 390.519 3.146C380.771 8.77 376.396 20.516 379.896 31.014C383.644 42.26 385.394 52.506 385.394 62.129C385.394 116.738 341.773 161.352 288.152 161.352C234.406 161.352 190.785 116.863 190.785 62.129C190.785 52.506 192.66 42.26 196.285 31.139C199.785 20.391 195.285 8.645 185.535 3.146C175.787 -2.477 163.287 -0.354 155.914 8.27C128.541 40.635 113.416 81.623 113.416 123.736C113.416 137.232 115.166 150.729 118.666 164.6C104.167 168.598 90.792 174.223 78.544 181.221C42.546 202.338 15.173 236.205 1.3 276.568C-2.325 287.189 1.8 298.686 11.548 304.684C21.298 310.434 33.796 308.434 41.296 299.811C48.921 291.063 56.669 284.314 64.794 279.566C87.167 266.445 113.166 262.947 138.039 269.695C163.287 276.443 184.41 292.812 197.535 315.807C224.408 363.293 208.408 424.15 161.787 451.643C153.664 456.391 144.164 459.891 132.789 462.264C121.791 464.639 114.041 474.387 114.166 485.633S122.291 506.627 133.289 508.75C144.289 510.875 155.289 512 166.287 512C196.785 512 226.783 504.002 253.281 488.381C265.779 481.135 277.279 471.887 287.902 461.139C298.652 472.012 310.275 481.135 322.65 488.381C358.646 509.625 401.269 516.873 442.515 508.75C453.64 506.627 461.388 497.129 461.638 485.633C461.763 474.387 453.765 464.639 442.89 462.264C431.515 459.891 422.142 456.391 413.892 451.643C367.271 424.15 351.273 363.293 378.271 315.807C391.269 292.813 412.392 276.443 437.765 269.695C462.638 262.947 488.636 266.445 510.884 279.566C519.134 284.314 526.759 290.938 534.507 299.811C542.007 308.434 554.507 310.309 564.255 304.559C574.255 298.686 578.255 287.189 574.755 276.568ZM429.642 238.703C395.894 247.701 367.896 269.57 350.648 300.061C315.025 362.668 336.273 443.02 397.769 479.135C398.019 479.135 398.144 479.26 398.269 479.26C377.396 477.635 357.146 471.262 338.898 460.641C324.775 452.268 311.9 440.895 300.527 426.775L288.027 411.404L275.529 426.898C264.154 441.02 251.281 452.393 237.156 460.641C218.908 471.387 198.66 477.635 177.787 479.385C177.912 479.26 178.162 479.135 178.287 479.135C239.781 443.02 261.029 362.668 225.533 300.186C208.283 269.695 180.162 247.826 146.414 238.828C135.414 235.83 124.291 234.455 113.291 234.455C90.917 234.455 68.919 240.328 49.171 251.824C61.044 234.33 76.544 219.709 94.792 208.963C108.666 200.84 123.916 195.342 141.664 192.217L160.162 189.092L154.039 171.223C148.289 154.602 145.414 139.107 145.414 123.736C145.414 102.742 150.039 81.873 158.787 62.879C159.162 134.857 216.908 193.342 288.027 193.342C359.021 193.342 416.892 134.857 417.267 62.879C426.017 81.873 430.642 102.742 430.642 123.736C430.642 138.982 427.767 154.479 422.142 171.223L416.017 188.967L434.515 192.217C452.265 195.217 467.513 200.715 481.386 208.838C499.636 219.584 515.134 234.205 527.009 251.699C497.261 234.58 462.763 229.83 429.642 238.703ZM168.787 400.781C140.289 374.414 120.541 338.674 114.291 298.436C113.916 298.436 113.541 298.186 113.166 298.186C102.792 298.186 92.417 301.186 83.167 306.184C90.792 352.17 113.541 393.033 146.164 423.525C155.789 417.902 163.287 409.904 168.787 400.781Z"/></svg>
